X:385
T: Shibeijiu
N: C1420
O: China, Gansu, Lingxia
S: I, 138]
R: Xiaodiao, Fengsuge, Jiuqu]
M: 2/4
L: 1/16
K: A
ff3fafe | ec3c2e2 | f2z2abab2 | f3af2e2 | f2fef4- | f4
e2f2 | f2f2a2f2 | e2fafecz | efecB2BA | B6z2
e2c4e2 | f2f2fafe | f2f2czf2 | c2cB
A2B2 | c2z2efec | B2B2B2A2 | F2A2F2E2 | F8- | F4
A2B2 | c4efec | B2B2B2A2 | F2A2F2E2 | F8

